!!!OTL: Der Mutter und Tochter dasselbe gefaellt
!!!ARE: Europa, Mitteleuropa, Deutschland
!!!SCT: A0227
!!!YEM: Copyright 1995, estate of Helmut Schaffrath.
**kern
*ICvox
*Ivox
*M4/4
*k[]
*C:
{4g
=1
4e
4c
4d
4G
=2
4c
4e
4d}
{4d
=3
4e
4g
4g
4f#
=4
2g
4r}
{4d
=5
4e
4f
4g
4e
=6
4f
4d
4e}
{4G
=7
4A
4c
4c
4B
=8
2c
4r}
==
!!!AGN: Romanze, Ballade, Lied
!! Franck, Fasc. quodl. 1611 No. 6.
!!!ONB: ESAC (Essen Associative Code) Database: ALTDEU
!!!AMT: simple quadruple
!!!AIN: vox
!!!EED: Helmut Schaffrath
!!!EEV: 1.0
*-
